packages/components/src/common/svgs/IconCheckboxIndeterminate.svg

<svg xmlns="http://www.w3.org/2000/svg" width="16" height="16" viewBox="0 0 16 16">
  <path d="M0 2a2 2 0 0 1 2-2h12a2 2 0 0 1 2 2v12a2 2 0 0 1-2 2H2a2 2 0 0 1-2-2V2Z"/>
  <path fill="#fff" d="M12.286 8.004a.625.625 0 0 0-.625-.625H4.339a.625.625 0 0 0 0 1.25h7.322c.345 0 .625-.28.625-.625Z"/>
</svg>

<svg xmlns="http://www.w3.org/2000/svg" width="16" height="16" viewBox="0 0 16 16">
  <path
    d="M 0 2 C 0 0.895 0.895 0 2 0 L 14 0 C 15.105 0 16 0.895 16 2 L 16 14 C 16 15.105 15.105 16 14 16 L 2 16 C 0.895 16 0 15.105 0 14 Z M 11.661 7.379 L 4.339 7.379 C 3.858 7.379 3.557 7.9 3.798 8.317 C 3.909 8.51 4.116 8.629 4.339 8.629 L 11.661 8.629 C 12.006 8.629 12.286 8.349 12.286 8.004 C 12.286 7.659 12.006 7.379 11.661 7.379 Z"></path>
</svg>
